icons/svg/transport/escape_lane.svg

<?xml version="1.0" encoding="UTF-8" standalone="no"?>
<!-- Created with Inkscape (http://www.inkscape.org/) -->

<svg
   xmlns:dc="http://purl.org/dc/elements/1.1/"
   xmlns:cc="http://creativecommons.org/ns#"
   xmlns:rdf="http://www.w3.org/1999/02/22-rdf-syntax-ns#"
   xmlns:svg="http://www.w3.org/2000/svg"
   xmlns="http://www.w3.org/2000/svg"
   xmlns:sodipodi="http://sodipodi.sourceforge.net/DTD/sodipodi-0.dtd"
   xmlns:inkscape="http://www.inkscape.org/namespaces/inkscape"
   version="1.0"
   width="580"
   height="580"
   id="svg2"
   sodipodi:version="0.32"
   inkscape:version="0.91 r"
   sodipodi:docname="escape_lane.svg"
   inkscape:output_extension="org.inkscape.output.svg.inkscape">
  <metadata
     id="metadata10">
    <rdf:RDF>
      <cc:Work
         rdf:about="">
        <dc:format>image/svg+xml</dc:format>
        <dc:type
           rdf:resource="http://purl.org/dc/dcmitype/StillImage" />
        <cc:license
           rdf:resource="http://web.resource.org/cc/PublicDomain" />
        <dc:language>en</dc:language>
        <dc:title />
      </cc:Work>
    </rdf:RDF>
  </metadata>
  <sodipodi:namedview
     inkscape:window-height="995"
     inkscape:window-width="1280"
     inkscape:pageshadow="2"
     inkscape:pageopacity="0.0"
     guidetolerance="10.0"
     gridtolerance="10.0"
     objecttolerance="10.0"
     borderopacity="1.0"
     bordercolor="#666666"
     pagecolor="#ffffff"
     id="base"
     showgrid="false"
     inkscape:zoom="0.25"
     inkscape:cx="640.46117"
     inkscape:cy="155.99006"
     inkscape:window-x="0"
     inkscape:window-y="0"
     inkscape:current-layer="svg2"
     inkscape:window-maximized="1" />
  <defs
     id="defs4">
    <inkscape:perspective
       sodipodi:type="inkscape:persp3d"
       inkscape:vp_x="0 : 290 : 1"
       inkscape:vp_y="0 : 1000 : 0"
       inkscape:vp_z="580 : 290 : 1"
       inkscape:persp3d-origin="290 : 193.33333 : 1"
       id="perspective12" />
    <style
       type="text/css"
       id="style6">
   
    .fil0 {fill:#EF7900}
   
  </style>
    <inkscape:perspective
       id="perspective6807"
       inkscape:persp3d-origin="29.116032 : 19.410688 : 1"
       inkscape:vp_z="58.232063 : 29.116032 : 1"
       inkscape:vp_y="0 : 1000 : 0"
       inkscape:vp_x="0 : 29.116032 : 1"
       sodipodi:type="inkscape:persp3d" />
    <inkscape:perspective
       id="perspective6954"
       inkscape:persp3d-origin="290 : 193.33333 : 1"
       inkscape:vp_z="580 : 290 : 1"
       inkscape:vp_y="0 : 1000 : 0"
       inkscape:vp_x="0 : 290 : 1"
       sodipodi:type="inkscape:persp3d" />
    <marker
       viewBox="0 0 10 10"
       refY="5"
       refX="10"
       orient="auto"
       markerWidth="4"
       markerUnits="strokeWidth"
       markerHeight="3"
       id="ArrowStart">
      <path
         id="path2295"
         d="M 10 0 L 0 5 L 10 10 z" />
    </marker>
    <marker
       viewBox="0 0 10 10"
       refY="5"
       refX="0"
       orient="auto"
       markerWidth="4"
       markerUnits="strokeWidth"
       markerHeight="3"
       id="ArrowEnd">
      <path
         id="path2292"
         d="M 0 0 L 10 5 L 0 10 z" />
    </marker>
    <inkscape:perspective
       id="perspective7597"
       inkscape:persp3d-origin="178.5405 : 158.483 : 1"
       inkscape:vp_z="357.08099 : 237.7245 : 1"
       inkscape:vp_y="0 : 1000 : 0"
       inkscape:vp_x="0 : 237.7245 : 1"
       sodipodi:type="inkscape:persp3d" />
    <marker
       viewBox="0 0 10 10"
       refY="5"
       refX="10"
       orient="auto"
       markerWidth="4"
       markerUnits="strokeWidth"
       markerHeight="3"
       id="marker8025">
      <path
         id="path8027"
         d="M 10,0 L 0,5 L 10,10 L 10,0 z " />
    </marker>
    <marker
       viewBox="0 0 10 10"
       refY="5"
       refX="0"
       orient="auto"
       markerWidth="4"
       markerUnits="strokeWidth"
       markerHeight="3"
       id="marker8021">
      <path
         id="path8023"
         d="M 0,0 L 10,5 L 0,10 L 0,0 z " />
    </marker>
    <inkscape:perspective
       id="perspective8018"
       inkscape:persp3d-origin="205.96652 : 131.6262 : 1"
       inkscape:vp_z="411.93304 : 197.4393 : 1"
       inkscape:vp_y="0 : 1000 : 0"
       inkscape:vp_x="0 : 197.4393 : 1"
       sodipodi:type="inkscape:persp3d" />
    <inkscape:perspective
       id="perspective8269"
       inkscape:persp3d-origin="99.087723 : 77.339676 : 1"
       inkscape:vp_z="198.17545 : 116.00951 : 1"
       inkscape:vp_y="0 : 1000 : 0"
       inkscape:vp_x="0 : 116.00951 : 1"
       sodipodi:type="inkscape:persp3d" />
  </defs>
  <g
     id="g1327">
    <path
       d="M 66.275,1.768 C 24.94,1.768 1.704,23.139 1.704,66.804 L 1.704,516.927 C 1.704,557.771 22.598,579.156 63.896,579.156 L 515.92,579.156 C 557.227,579.156 578.149,558.84 578.149,516.927 L 578.149,66.804 C 578.149,24.203 557.227,1.768 514.627,1.768 C 514.624,1.768 66.133,1.625 66.275,1.768 z"
       style="fill:#111111;stroke:#eeeeee;stroke-width:3.40799999"
       id="path1329" />
  </g>
  <g
     id="g2319"
     transform="translate(879.29125,36.805119)">
    <path
       id="path2323"
       style="fill:#ffffff;stroke:none"
       d="" />
  </g>
  <g
     id="g2325"
     transform="translate(879.29125,36.805119)">
    <path
       id="path2329"
       style="fill:#ffffff;stroke:none"
       d="" />
  </g>
  <polygon
     points="14,1.6 24,0 22.4,10 "
     id="polygon5"
     transform="matrix(16.145631,0,0,16.145631,157.03866,196.71765)"
     style="fill:#ffffff;fill-opacity:1" />
  <path
     inkscape:connector-curvature="0"
     class="st0"
     d="m 350.78623,548.21277 0,-73.79028 c 0,-53.28058 20.98932,-104.94661 59.73883,-143.69612 l 80.72815,-80.72815"
     id="path7"
     style="fill:none;fill-opacity:1;stroke:#ffffff;stroke-width:66.19708252;stroke-miterlimit:4;stroke-dasharray:none;stroke-opacity:1"
     sodipodi:nodetypes="cssc" />
  <path
     style="fill:#ffffff;fill-opacity:1;fill-rule:evenodd;stroke:none"
     d="m 147.95119,31.819957 -0.0153,0.01534 c -7.98211,0.425298 -15.2082,4.856996 -19.20618,11.778966 L 38.665112,199.57031 c -9.088168,15.74867 2.269286,35.43207 20.451735,35.44455 l 180.205953,0.1384 c 18.20295,0.023 29.59628,-19.67813 20.49785,-35.44455 L 169.66387,43.614301 C 165.22174,35.910742 156.83129,31.353044 147.95119,31.819957 Z m 1.20855,27.075451 c 3.65787,0 5.295,3.248887 5.295,3.248887 l 80.28219,138.762265 c 0,0 1.40429,3.19668 0,5.62679 -1.40428,2.43014 -4.74199,2.40556 -4.74199,2.40556 l -158.545936,-0.1659 c 0,0 -4.863231,0.0898 -6.608384,-3.60834 -1.745153,-3.69816 0.898629,-7.90794 0.898629,-7.90794 L 143.79562,62.18577 c 0,0 1.70624,-3.290362 5.36412,-3.290362 z"
     id="path2990"
     inkscape:connector-curvature="0"
     sodipodi:nodetypes="cccccccccsccsccsccs" />
  <g
     transform="matrix(0.81463357,0,0,0.81465574,-195.96484,37.261623)"
     style="font-style:normal;font-weight:normal;font-size:170px;line-height:125%;font-family:Sans;letter-spacing:0px;word-spacing:0px;fill:#ffffff;fill-opacity:1;stroke:none"
     id="flowRoot3790">
    <path
       d="m 446.11447,87.088644 c -8e-5,0.56677 -0.31922,3.4001 -0.9574,8.499996 l -8.22325,56.62587 -23.44514,0 -8.22325,-56.79587 c -3e-5,-0.79323 -0.21279,-2.09657 -0.63826,-3.91 -0.21279,-1.926562 -0.31918,-3.399893 -0.31914,-4.419996 -4e-5,-3.966559 1.70202,-7.536556 5.10614,-10.71 3.40403,-3.286549 8.72291,-4.929881 15.95665,-4.93 13.82903,1.19e-4 20.74357,5.213447 20.74365,15.64 m -9.21292,82.471536 c 3.31575,3.31583 4.97365,7.26321 4.9737,11.84215 -5e-5,4.57898 -1.65795,8.4474 -4.9737,11.6053 -3.31584,3.00002 -7.26322,4.50001 -11.84214,4.50001 -4.10531,0 -7.8948,-1.57895 -11.36846,-4.73686 -3.31583,-3.31578 -4.97373,-7.10527 -4.9737,-11.36845 -3e-5,-4.57894 1.57893,-8.52632 4.73686,-11.84215 3.15786,-3.47366 7.10525,-5.2105 11.84214,-5.21054 4.57891,4e-5 8.44735,1.73688 11.6053,5.21054"
       style="font-variant:normal;font-weight:bold;font-stretch:normal;font-family:Kinnari;-inkscape-font-specification:'Kinnari Bold';fill:#ffffff;fill-opacity:1"
       id="path3799"
       inkscape:connector-curvature="0"
       sodipodi:nodetypes="cccccccccccccsccccc" />
  </g>
  <path
     style="fill:none;fill-rule:evenodd;stroke:#ffffff;stroke-width:76.09999847;stroke-linecap:butt;stroke-linejoin:miter;stroke-miterlimit:4;stroke-dasharray:38.04999924, 38.04999924;stroke-dashoffset:38.04999924;stroke-opacity:1"
     d="M 359.69547,476.42148 235.07311,275.29302"
     id="path4215"
     inkscape:connector-curvature="0"
     sodipodi:nodetypes="cc" />
</svg>

<svg width="580" height="580" viewBox="0 0 580 580" fill="none" xmlns="http://www.w3.org/2000/svg">
<g clip-path="url(#clip0)">
<path d="M66.2751 1.76766C24.9401 1.76766 1.7041 23.1387 1.7041 66.8037V516.927C1.7041 557.771 22.5981 579.156 63.8961 579.156H515.92C557.227 579.156 578.149 558.84 578.149 516.927V66.8037C578.149 24.2027 557.227 1.76766 514.627 1.76766C514.624 1.76766 66.1331 1.62466 66.2751 1.76766Z" fill="#111111" stroke="#EEEEEE" stroke-width="3.408"/>
<path d="M383.078 222.551L544.534 196.718L518.701 358.174L383.078 222.551Z" fill="white"/>
<path d="M350.786 548.213V474.422C350.786 421.142 371.775 369.476 410.525 330.726L491.253 249.998" stroke="white" stroke-width="66.1971"/>
<path fill-rule="evenodd" clip-rule="evenodd" d="M147.951 31.8198L147.936 31.8352C139.954 32.2605 132.728 36.6922 128.73 43.6141L38.6652 199.57C29.5771 215.319 40.9345 235.002 59.117 235.015L239.323 235.153C257.526 235.176 268.919 215.475 259.821 199.709L169.664 43.6142C165.222 35.9106 156.831 31.3529 147.951 31.8198ZM149.16 58.8953C152.818 58.8953 154.455 62.1442 154.455 62.1442L234.737 200.906C234.737 200.906 236.141 204.103 234.737 206.533C233.333 208.963 229.995 208.939 229.995 208.939L71.4491 208.773C71.4491 208.773 66.5859 208.863 64.8407 205.165C63.0956 201.466 65.7394 197.257 65.7394 197.257L143.796 62.1857C143.796 62.1857 145.502 58.8953 149.16 58.8953V58.8953Z" fill="white"/>
<path d="M167.455 108.209C167.455 108.671 167.195 110.979 166.675 115.134L159.976 161.264H140.877L134.178 114.995C134.178 114.349 134.005 113.287 133.658 111.81C133.485 110.24 133.398 109.04 133.398 108.209C133.398 104.978 134.784 102.069 137.558 99.484C140.331 96.8066 144.664 95.4679 150.556 95.4678C161.822 95.4679 167.455 99.7149 167.455 108.209V108.209ZM159.95 175.395C162.651 178.096 164.001 181.312 164.001 185.042C164.001 188.772 162.651 191.924 159.95 194.496C157.249 196.94 154.033 198.162 150.303 198.162C146.958 198.162 143.871 196.876 141.042 194.304C138.34 191.602 136.99 188.515 136.99 185.042C136.99 181.312 138.276 178.096 140.849 175.395C143.421 172.565 146.637 171.15 150.496 171.15C154.226 171.15 157.377 172.565 159.95 175.395" fill="white"/>
<path d="M359.696 476.421L235.073 275.293" stroke="white" stroke-width="76.1" stroke-dasharray="38.05 38.05"/>
</g>
<defs>
<clipPath id="clip0">
<path d="M0 0H580V580H0V0Z" fill="white"/>
</clipPath>
</defs>
</svg>
